32x32/apps/jgray.svg

<svg xmlns="http://www.w3.org/2000/svg" width="32" height="32" version="1">
 <path style="opacity:0.2" d="m 14,2.9999999 v 3.999525 h 2.12052 c 0.803798,0 1.562137,0.124764 1.720262,0.28295 0.209836,0.209921 0.166698,3.0333581 0.166698,9.5670521 0,10.939176 -0.101127,10.152792 -3.527744,10.145864 -2.928612,-0.0059 -4.011185,-0.754456 -2.580406,-2.338782 1.483214,-1.642399 1.464031,-2.925495 -0.05466,-4.351659 -0.872039,-0.818905 -1.448273,-1.235125 -2.575086,-1.308132 -1.4300626,-0.09266 -3.2215658,0.384565 -4.501256,1.480363 -0.9947564,0.85181 -1.6496113,2.011086 -1.7524535,3.154989 -0.1388375,1.544274 0.6389012,3.242616 2.1022447,4.792347 2.4816417,2.716239 4.5229928,2.478536 9.4435908,2.569791 3.797896,0.06757 7.965159,-0.404175 9.998187,-4.823824 0.503013,-1.089984 0.377016,-1.430054 0.442707,-9.616209 0.07693,-9.5860911 0.113002,-9.5547501 2.106945,-9.5547501 0.483107,0 0.835248,0.01547 1.099929,0 H 29 v -3.999525 h -0.03082 -7.232649 z"/>
 <path style="fill:#777777" d="m 14,2 v 3.999525 h 2.12052 c 0.803798,0 1.562137,0.124764 1.720262,0.28295 0.209836,0.209921 0.166698,3.033358 0.166698,9.567052 0,10.939176 -0.101127,10.152792 -3.527744,10.145864 -2.928612,-0.0059 -4.011185,-0.754456 -2.580406,-2.338782 1.483214,-1.642399 1.464031,-2.925495 -0.05466,-4.351659 -0.872039,-0.818905 -1.448273,-1.235125 -2.575086,-1.308132 -1.4300626,-0.09266 -3.2215658,0.384565 -4.501256,1.480363 -0.9947564,0.85181 -1.6496113,2.011086 -1.7524535,3.154989 -0.1388375,1.544274 0.6389012,3.242616 2.1022447,4.792347 2.4816417,2.716239 4.5229928,2.478536 9.4435908,2.569791 3.797896,0.06757 7.965159,-0.404175 9.998187,-4.823824 0.503013,-1.089984 0.377016,-1.430054 0.442707,-9.616209 0.07693,-9.586091 0.113002,-9.55475 2.106945,-9.55475 0.483107,0 0.835248,0.01547 1.099929,0 H 29 V 2 h -0.03082 -7.232649 z"/>
 <path style="fill:#f4f4f7;opacity:0.1" d="M 14 2 L 14 3 L 21.736328 3 L 28.96875 3 L 29 3 L 29 2 L 28.96875 2 L 21.736328 2 L 14 2 z M 18.007812 16.048828 C 18.006259 26.750272 17.883225 26.002974 14.480469 25.996094 C 12.877102 25.992864 11.830562 25.764496 11.443359 25.300781 C 10.84765 26.440497 11.98646 26.991069 14.480469 26.996094 C 17.907086 27.003022 18.007812 27.788785 18.007812 16.849609 C 18.007812 16.483951 18.007594 16.391437 18.007812 16.048828 z M 8.71875 17.988281 C 7.4003191 18.032532 5.887307 18.517739 4.7675781 19.476562 C 3.7728217 20.328373 3.1184672 21.488909 3.015625 22.632812 C 2.9898521 22.919482 3.0050959 23.212461 3.0410156 23.507812 C 3.1786542 22.40499 3.8091263 21.297285 4.7675781 20.476562 C 6.0472683 19.380764 7.8394686 18.903434 9.2695312 18.996094 C 10.396344 19.069101 10.971711 19.485782 11.84375 20.304688 C 12.437938 20.862674 12.794752 21.399086 12.929688 21.943359 C 13.157717 21.037416 12.796332 20.199233 11.84375 19.304688 C 10.971711 18.485782 10.396344 18.069101 9.2695312 17.996094 C 9.0907734 17.984511 8.9070973 17.98196 8.71875 17.988281 z"/>
</svg>

<svg xmlns="http://www.w3.org/2000/svg" width="32" height="32" version="1"><path style="opacity:.2" d="M14 3v4h2.12c.804 0 1.563.124 1.72.282.21.21.167 3.034.167 9.568 0 10.939-.1 10.152-3.527 10.145-2.929-.006-4.011-.754-2.58-2.338 1.483-1.643 1.463-2.926-.055-4.352-.872-.819-1.449-1.235-2.575-1.308-1.43-.093-3.222.384-4.502 1.48-.994.852-1.65 2.011-1.752 3.155-.139 1.544.639 3.243 2.102 4.793 2.482 2.716 4.523 2.478 9.444 2.57 3.798.067 7.965-.405 9.998-4.825.503-1.09.377-1.43.443-9.616C25.08 6.968 25.116 7 27.11 7c.483 0 .835.015 1.1 0H29V3h-7.263z"/><path style="fill:#777" d="M14 2v4h2.12c.804 0 1.563.124 1.72.282.21.21.167 3.034.167 9.568 0 10.939-.1 10.152-3.527 10.145-2.929-.006-4.011-.754-2.58-2.338 1.483-1.643 1.463-2.926-.055-4.352-.872-.819-1.449-1.235-2.575-1.308-1.43-.093-3.222.384-4.502 1.48-.994.852-1.65 2.011-1.752 3.155-.139 1.544.639 3.243 2.102 4.793 2.482 2.716 4.523 2.478 9.444 2.57 3.798.067 7.965-.405 9.998-4.825.503-1.09.377-1.43.443-9.616C25.08 5.968 25.116 6 27.11 6c.483 0 .835.015 1.1 0H29V2h-7.263z"/><path style="fill:#f4f4f7;opacity:.1" d="M14 2v1h15V2H14zm4.008 14.049c-.002 10.701-.125 9.954-3.528 9.947-1.603-.003-2.65-.232-3.037-.695-.595 1.14.543 1.69 3.037 1.695 3.427.007 3.528.793 3.528-10.146v-.801zm-9.29 1.94c-1.318.044-2.83.529-3.95 1.488-.995.851-1.65 2.012-1.752 3.156-.026.286-.01.58.025.875.138-1.103.768-2.21 1.727-3.031 1.28-1.096 3.071-1.574 4.502-1.48 1.126.072 1.702.489 2.574 1.308.594.558.95 1.094 1.086 1.638.228-.906-.134-1.744-1.086-2.638-.872-.82-1.448-1.236-2.574-1.309a5.61 5.61 0 0 0-.551-.008z"/></svg>
